X: 4
T: The Humours Of Ballyloughlin
R: jig
M: 6/8
L: 1/8
K: Dmix
|:A/c/AA AGE|GED D3|c2A ded|cAG FED|
A3 AGE|FGG cGE|D3 DFA|1D3 D3:|2D3 D2B||
|:c3 c2B|cAG ABc|ded dfe|dAF DF/G/A|
cBc dcB|cAG FGE|D3 DFA|1D3 D2B:|2D3 D2e||
|:fdd ged|fdd ged|c2e ged|c/d/ef ged|
fdd ged|f2a ged|c/d/ef g3|1ed^c d2e:|2ed^c dcB||
A2D A2G|EFF GED|E3 EFD|E3 EFG|
A3 dAG|F3 GEA|D3 DFA|D3 D3:||


Tune 210	Setting 210

